X:663
T:Fill o-ro (Lewis version)
B:Eilean Fraoich (1982)
Z:Nigel Gatherer
N:Changed from 6/8
L:1/4
M:3/4
K:G
B | d3  | B2A | G3 | A2B | D3 | EDE | G3 | G2 :|
D | G3  | c2d | e3 | de2 | d3 | BAG | c3 | d2e |
    Bd2 | BA2 | G3 | A2B | D3 | EDE | G3 | G2 |]
